X:234
T: ES SEI MEIN HERZ UND BLUT GEWEIHT
N: F0407
O: Europa, Mitteleuropa, Deutschland
R: Vaterlands -, Heimat - Lied, nationalistisch, Krieg
M: 4/4
L: 1/8
K: F
FG | A2B2c2de | f2edc2
B2 | B2c2A2cB | A2G2z2
F2 | A2B2c2de | f2edc2
d2 | B2c2A2cB | A2G2F2z
F | G2A2B3G | A2B2c2
c2 | d2c2d2e2 | f2edc2
d2 | B2c2A2cB | A2G2F2

@@@ Tune index: 5665
